Newaita-dark/actions/16/edit-delete.svg

<?xml version="1.0" encoding="UTF-8"?>
<svg xmlns="http://www.w3.org/2000/svg" xmlns:xlink="http://www.w3.org/1999/xlink" width="16pt" height="16pt" viewBox="0 0 16 16" version="1.1">
<g id="surface1">
<path style=" stroke:none;fill-rule:nonzero;fill:rgb(93.725491%,32.549021%,31.37255%);fill-opacity:1;" d="M 3.96875 3.433594 C 3.234375 3.433594 2.644531 4.023438 2.644531 4.753906 L 2.644531 14.015625 C 2.644531 14.75 3.234375 15.339844 3.96875 15.339844 L 11.90625 15.339844 C 12.640625 15.339844 13.230469 14.75 13.230469 14.015625 L 13.230469 4.753906 C 13.230469 4.023438 12.640625 3.433594 11.90625 3.433594 Z M 4.300781 4.425781 L 11.578125 4.425781 C 11.941406 4.425781 12.238281 4.71875 12.238281 5.085938 L 12.238281 13.6875 C 12.238281 14.050781 11.941406 14.347656 11.578125 14.347656 L 4.300781 14.347656 C 3.933594 14.347656 3.636719 14.050781 3.636719 13.6875 L 3.636719 5.085938 C 3.636719 4.71875 3.933594 4.425781 4.300781 4.425781 Z M 4.300781 4.425781 "/>
<path style=" stroke:none;fill-rule:nonzero;fill:rgb(93.725491%,32.549021%,31.37255%);fill-opacity:1;" d="M 2.644531 2.109375 L 13.230469 2.109375 C 13.597656 2.109375 13.890625 2.300781 13.890625 2.539062 L 13.890625 2.671875 C 13.890625 2.910156 13.597656 3.101562 13.230469 3.101562 L 2.644531 3.101562 C 2.28125 3.101562 1.984375 2.910156 1.984375 2.671875 L 1.984375 2.539062 C 1.984375 2.300781 2.28125 2.109375 2.644531 2.109375 Z M 2.644531 2.109375 "/>
<path style=" stroke:none;fill-rule:nonzero;fill:rgb(93.725491%,32.549021%,31.37255%);fill-opacity:1;" d="M 7.9375 0.785156 C 8.210938 0.785156 8.433594 1.007812 8.433594 1.28125 L 8.433594 2.273438 C 8.433594 2.550781 8.210938 2.769531 7.9375 2.769531 C 7.664062 2.769531 7.441406 2.550781 7.441406 2.273438 L 7.441406 1.28125 C 7.441406 1.007812 7.664062 0.785156 7.9375 0.785156 Z M 7.9375 0.785156 "/>
<path style=" stroke:none;fill-rule:nonzero;fill:rgb(93.725491%,32.549021%,31.37255%);fill-opacity:0.960784;" d="M 5.417969 5.746094 L 5.496094 5.746094 C 5.75 5.746094 5.953125 5.96875 5.953125 6.242188 L 5.953125 12.527344 C 5.953125 12.800781 5.75 13.023438 5.496094 13.023438 L 5.417969 13.023438 C 5.167969 13.023438 4.960938 12.800781 4.960938 12.527344 L 4.960938 6.242188 C 4.960938 5.96875 5.167969 5.746094 5.417969 5.746094 Z M 5.417969 5.746094 "/>
<path style=" stroke:none;fill-rule:nonzero;fill:rgb(93.725491%,32.549021%,31.37255%);fill-opacity:1;" d="M 7.898438 5.746094 L 7.976562 5.746094 C 8.230469 5.746094 8.433594 5.96875 8.433594 6.242188 L 8.433594 12.527344 C 8.433594 12.800781 8.230469 13.023438 7.976562 13.023438 L 7.898438 13.023438 C 7.648438 13.023438 7.441406 12.800781 7.441406 12.527344 L 7.441406 6.242188 C 7.441406 5.96875 7.648438 5.746094 7.898438 5.746094 Z M 7.898438 5.746094 "/>
<path style=" stroke:none;fill-rule:nonzero;fill:rgb(93.725491%,32.549021%,31.37255%);fill-opacity:1;" d="M 10.371094 5.746094 L 10.464844 5.746094 C 10.714844 5.746094 10.914062 5.96875 10.914062 6.242188 L 10.914062 12.527344 C 10.914062 12.800781 10.714844 13.023438 10.464844 13.023438 L 10.371094 13.023438 C 10.125 13.023438 9.921875 12.800781 9.921875 12.527344 L 9.921875 6.242188 C 9.921875 5.96875 10.125 5.746094 10.371094 5.746094 Z M 10.371094 5.746094 "/>
</g>
</svg>

<svg xmlns="http://www.w3.org/2000/svg" width="16pt" height="16pt" viewBox="0 0 16 16"><g fill="#ef5350"><path d="M3.969 3.434a1.32 1.32 0 0 0-1.324 1.32v9.262c0 .734.59 1.324 1.324 1.324h7.937a1.32 1.32 0 0 0 1.324-1.324V4.754c0-.73-.59-1.32-1.324-1.32zm.332.992h7.277a.66.66 0 0 1 .66.66v8.602c0 .363-.297.66-.66.66H4.301a.663.663 0 0 1-.664-.66V5.085a.66.66 0 0 1 .664-.66zm0 0M2.645 2.11H13.23c.368 0 .66.19.66.43v.132c0 .238-.292.43-.66.43H2.645c-.364 0-.66-.192-.66-.43v-.133c0-.238.296-.43.66-.43zm0 0"/><path d="M7.938.785c.273 0 .496.223.496.496v.992a.494.494 0 0 1-.496.497.494.494 0 0 1-.497-.497v-.992c0-.273.223-.496.497-.496zm0 0"/><path d="M5.418 5.746h.078c.254 0 .457.223.457.496v6.285c0 .274-.203.496-.457.496h-.078c-.25 0-.457-.222-.457-.496V6.242c0-.273.207-.496.457-.496zm0 0" fill-opacity=".961"/><path d="M7.898 5.746h.079c.253 0 .457.223.457.496v6.285c0 .274-.204.496-.457.496h-.079c-.25 0-.457-.222-.457-.496V6.242c0-.273.207-.496.457-.496zm0 0M10.371 5.746h.094c.25 0 .45.223.45.496v6.285c0 .274-.2.496-.45.496h-.094c-.246 0-.45-.222-.45-.496V6.242c0-.273.204-.496.45-.496zm0 0"/></g></svg>
